icons/svg/24x24/device monitor/outline.svg

<svg xmlns="http://www.w3.org/2000/svg" width="24" height="24" viewBox="0 0 24 24">
  <path fill-rule="evenodd" d="M20,13.0908 C20,14.3248 19.084,15.3878 17.868,15.5648 C13.897,16.1428 10.104,16.1428 6.131,15.5648 C4.916,15.3878 4,14.3248 4,13.0908 L4,7.9088 C4,6.6748 4.916,5.6118 6.132,5.4358 C8.117,5.1468 10.092,4.9998 12,4.9998 C13.908,4.9998 15.883,5.1468 17.869,5.4358 C19.084,5.6118 20,6.6748 20,7.9088 L20,13.0908 Z M18.157,3.4568 C16.076,3.1528 14.038,2.9998 12,2.9998 C9.962,2.9998 7.924,3.1528 5.844,3.4568 C3.652,3.7748 2,5.6888 2,7.9088 L2,13.0908 C2,15.3118 3.652,17.2258 5.843,17.5428 C6.9,17.6968 7.955,17.8118 9,17.8888 L9,18.9998 L7,18.9998 C6.447,18.9998 6,19.4468 6,19.9998 C6,20.5528 6.447,20.9998 7,20.9998 L17,20.9998 C17.553,20.9998 18,20.5528 18,19.9998 C18,19.4468 17.553,18.9998 17,18.9998 L15,18.9998 L15,17.8888 C16.045,17.8118 17.1,17.6968 18.156,17.5428 C20.348,17.2258 22,15.3118 22,13.0908 L22,7.9088 C22,5.6888 20.348,3.7748 18.157,3.4568 L18.157,3.4568 Z"/>
</svg>

<svg width="24" height="24" fill="none" xmlns="http://www.w3.org/2000/svg">
  <path fill-rule="evenodd" clip-rule="evenodd" d="M20 13.09a2.509 2.509 0 01-2.132 2.475 39.94 39.94 0 01-11.737 0A2.509 2.509 0 014 13.09V7.909c0-1.234.916-2.297 2.132-2.473A40.9 40.9 0 0112 5c1.908 0 3.883.147 5.869.436A2.507 2.507 0 0120 7.909v5.182zm-1.843-9.633A42.409 42.409 0 0012 3c-2.038 0-4.076.153-6.156.457C3.652 3.775 2 5.689 2 7.909v5.182c0 2.22 1.652 4.135 3.843 4.452 1.057.154 2.112.269 3.157.346v1.11H7a1 1 0 100 2h10a1 1 0 100-2h-2v-1.11a44.61 44.61 0 003.156-.346C20.348 17.226 22 15.312 22 13.09V7.909c0-2.22-1.652-4.134-3.843-4.452z" fill="#000"/>
</svg>
